X:1
T:I Giorni
T:Ludovico Einaudi
T:Eve Abiodun
%%score { 1 | 2 }
L:1/8
M:3/4
K:D
V:1 treble transpose=12 nm="Piano" snm="Pno."
V:2 bass transpose=12 
V:1
!p! D4- D2 | C6 | C2 B,4 | z4 B,C | D6 | C6 | B,6 | z2 z C B,C | D6 | C4- CD | C/D/C B,4 | z4 B,C | %12
 D6 | C2 E2 DC | B,6 | z4 DE | F6 | E4- EF | E2 D4 | z4 DE | F6 | E3 A- A2 | D6 | z2 B,C B,C | D6 | %25
 C4- CD | C/D/C B,4 | z4 B,C | D6 | C2 E2 DC | B,6 | z2 z!mf! D CD |: D,2 z D CD | C,2 z E DC | %34
 C2 B,4 | z2 z D CD | D,2 z D CD | C,E DE DC | B,6 | z2 z D CD | D,2 z D CD | C,2 z E DC | C2 B,4 | %43
 z2 z D CD | D,2 z D CD | C,E DE DC | B,6 | z2 F,G, F,G, | A,2 F,G, F,G, | A,2 F,G, F,G, | %50
 A,D, F,A, D,F, | G,2 F,G, F,G, | A,2 F,G, F,G, | A,B, A,G, F,E,- | E,2 D,4 | z2 F,G, F,G, | %56
 A,2 F,G, F,G, | A,B, A,G, F,G, | A,D, F,A, D,F, | G,2 F,G, F,G, | A,2 F,G, F,G, | A,B, A,G, F,E, | %62
 D,6 | z2 F,G, F,E, | D,F, A,D, F,A, | z D, F,G, F,E,- | E,2 D,4 | z2 F,G, F,E, | %68
 A,A,, D,A, A,,D, | A,A,, D,G, A,,D, | G,A,, D,F, A,,D, | F,A,, D,G, A,,D, | DD, A,D D,A, | %73
 DD, G,D D,G, | DD, F,D D,F, | DD, G,D D,G, | DD, A,D D,A, | DE, G,D E,G, | DD, F,D D,F, | %79
 DD, G,D D,G, | DF, DF, DF, | [G,D]E, [G,D]E, [G,D]E, | [F,D]D, [F,D]D, [F,D]D, | %83
 [G,D]D, [G,D]D, [G,D]D, | [F,D]D, [F,D]D, [F,D]D, | [E,D]D, [E,D]D, [E,D]D, | !fermata![D,F,D]6 | %87
!pp! F2 B,2 G2 | A2 C2 D2 | B2 F2 E2 | D2 C2 A,2 | F2 B,2 G2 | A2 C2 D2 | B6- | B6 | F2 B,2 G2 | %96
 A2 C2 D2 | B2 F2 E2 | D2 C2 A,2 | F2 B,2 G2 | A2 C2 D2 | B,6- | B,4 z D, | [A,D]6 | C6 | C2 B,4 | %106
 z4 B,C | D6 | C6 | B,6 | z2 z C B,C | D6 | C4- CD | C/D/C B,4 | z4 B,C | D6 | C2 E2 DC | B,6 | %118
 z4 DE | F6 | E4- EF | E2 D4 | z4 DE | F6 | E3 A- A2 | D6 | z2 B,C B,C | D6 | C4- CD | C/D/C B,4 | %130
 z4 B,C | D6 | C2 E2 DC | B,6 | z2 z!mf! D CD :| [D,F,A,D]6 | z2 FG FG | A2 FG FG | A2 FG FG | %139
 A6- | !fermata!A2 FG FG | A2 FG FG | AB AG FE- | E2 ([A,D]4 | !fermata![A,D]2) FG FG | A2 FG FG | %146
 AB AG FG | (A6 | !fermata!A2) FG FG | A2 FG FG | AB AG FE | D6- | !fermata!D2 FG FE | D2 F2 A2- | %154
 A2 FG FE- | E2 D4- | !fermata!D2 FG FE | AA, DA A,D | AA, DG A,D | GA, DF A,D | FG, A,D G,A, | %161
 AA, DA A,D | AA, DG A,D | GA, DF A,D | FA, DG A,D | AA, Dd DA | dD Gd DG | dD Fd DF | dD Gd DG | %169
 dD Gd DG | dD Gd DG | dD Fd DF | dD Gd D!fermata!G |!p! [Ad]D [Ad]D [Ad]D | [Ad]D [Gd]D [Gd]D | %175
 [Gd]D [Fd]D [Fd]D | [Gd]D [Fd]D [Gd]D | [Ad]D [Ad]D [Ad]D | [Ad]D [Bd]D [Bd]D | %179
 [Bd]D [Ad]D [Ad]D | [Ad]D [Gd]D [Gd]D |!f! [Ad]D [Ad]D [Ad]D | [Ad]D [Gd]D [Gd]D | %183
 [Gd]D [Fd]D [Fd]D | [Gd]D [Fd]D [Gd]D |!ff! !>![Fd]D !>![Fd]D !>![Fd]D | %186
 !>![Ed]D !>![Ed]D !>![Ed]D |!f! !arpeggio![D,F,A,D]6 |] %188
V:2
 B,,D, A,D, A,D, | A,,D, A,D, A,D, | G,,D, A,D, A,D, | z6 | B,,D, A,D, A,D, | A,,D, A,D, A,D, | %6
 G,,D, A,D, A,D, | z4 z z | B,,D, A,D, A,D, | A,,D, A,D, A,D, | G,,D, A,D, A,D, | z6 | %12
 B,,D, A,D, A,D, | A,,D, A,D, A,D, | G,,D, A,D, A,D, | z6 | B,,D, A,D, A,D, | A,,D, A,D, A,D, | %18
 G,,D, A,D, A,D, | z6 | B,,D, A,D, A,D, | A,,D, A,D, A,D, | G,,D, A,D, A,D, | z6 | %24
 B,,D, A,D, A,D, | A,,D, A,D, A,D, | G,,D, A,D, A,D, | z6 | B,,D, A,D, A,D, | A,,D, A,D, A,D, | %30
 G,,D, A,D, A,D, | z6 |:[K:bass] B,,,D,, A,,4 | A,,,D,, A,,4 | G,,,D,, A,,D,, A,,D,, | %35
 G,,,D,, A,,4 | B,,,D,, A,,4 | A,,,D,, A,,D,, A,,D,, | G,,,D,, A,,D,, A,,D,, | z6 | B,,,D,, A,,4 | %41
 A,,,D,, A,,4 | G,,,D,, A,,D,, A,,D,, | G,,,D,, A,,4 | B,,,D,, A,,4 | A,,,D,, A,,D,, A,,D,, | %46
 G,,,D,, A,,D,, A,,D,, | z6 | D,,A,, D,A,, D,A,, | A,,,E,, A,,E,, A,,E,, | B,,,F,, B,,F,, B,,F,, | %51
 G,,,D,, B,,D,, B,,D,, | D,,A,, D,A,, D,A,, | A,,,E,, A,,E,, A,,E,, | D,,F,, B,,F,, B,,F,, | %55
 G,,,D,, B,,D,, B,,D,, | D,,A,, D,A,, D,A,, | A,,,E,, A,,E,, A,,E,, | B,,,F,, B,,F,, B,,F,, | %59
 G,,,D,, B,,D,, B,,D,, | D,,A,, D,A,, D,A,, | A,,,E,, A,,E,, A,,E,, | B,,,F,, B,,F,, B,,F,, | %63
 G,,,D,, B,,4 | [D,,,D,,]6 | [A,,,,A,,,]6 | B,,,F,, B,,F,, B,,F,, | G,,,D,, B,,4 | [D,,,D,,]6 | %69
 [A,,,,A,,,]6 | [B,,,,B,,,]6 | [G,,,,G,,,]6 | [D,,,D,,]6 | [A,,,,A,,,]6 | B,,,F,, B,,F,, B,,F,, | %75
 G,,,D,, B,,D,, B,,D,, | D,,A,, D,A,, D,A,, | A,,,E,, A,,E,, A,,E,, | B,,,F,, B,,F,, B,,F,, | %79
 G,,,D,, B,,D,, B,,D,, | D,,A,, D,A,, D,A,, | A,,,E,, A,,E,, A,,E,, | B,,,F,, B,,F,, B,,F,, | %83
 G,,,D,, B,,4 | [D,,A,,]6 | [A,,,E,,A,,]6 | !fermata![D,,,A,,,D,,]6 |!p! [B,,,D,,A,,]6 | %88
 [A,,,D,,A,,]6 | ([G,,,D,,A,,]6 | [G,,,D,,A,,]6) | [B,,,D,,A,,]6 | [A,,,D,,A,,]6 | [G,,,D,,A,,]6 | %94
 [G,,,D,,A,,]6 | [B,,,D,,A,,]6 | [A,,,D,,A,,]6 | [G,,,D,,A,,]6 | [G,,,D,,A,,]6 | [B,,,D,,A,,]6 | %100
 [A,,,D,,A,,]6 | [G,,,D,,A,,]6 | [G,,,D,,A,,]6 |[K:treble] [B,,D,]6 | [A,,D,A,]6 | [G,,D,A,]6 | %106
 [G,,D,A,]6 | [B,,D,A,]6 | [A,,D,A,]6 | [G,,D,A,]6 | [G,,D,A,]6 | [B,,D,A,]6 | [A,,D,A,]6 | %113
 [G,,D,A,]6 | [G,,D,A,]6 | [B,,D,A,]6 | [A,,D,A,]6 | ([G,,D,A,]6 | [G,,D,A,]6) | B,,D, A,D, A,D, | %120
 A,,D, A,D, A,D, | G,,D, A,D, A,D, | G,,D, A,4 | B,,D, A,D, A,D, | A,,D, A,D, A,D, | %125
 G,,D, A,D, A,D, | z6 | B,,D, A,D, A,D, | A,,D, A,D, A,D, | G,,D, A,D, A,D, | G,,D, A,4 | %131
 B,,D, A,D, A,D, | A,,D, A,D, A,D, | G,,D, A,D, A,D, | z6 :|[K:bass]!mf! [D,,,A,,,D,,]6 | %136
 [D,,,A,,,D,,]6 | [D,,A,,D,]6 | [A,,,E,,A,,]6 | [A,,,F,,D,]6 | [G,,,D,,B,,]2 [G,,,D,,B,,]4 | %141
 [D,,A,,D,]6 | [A,,,E,,A,,]6 | [B,,,F,,D,]6 | [G,,,D,,B,,]2 [G,,,D,,B,,]4 | [D,,A,,D,]6 | %146
 [A,,,E,,A,,]6 | [B,,,F,,D,]6 | [G,,,D,,B,,]2 [G,,,D,,B,,]4 | [D,,A,,D,]6 | [A,,,E,,A,,]6 | %151
 [B,,,F,,D,]6 | ([G,,,D,,B,,]2 [G,,,D,,B,,]4) | [D,,A,,D,]6 | [A,,,E,,A,,]6 | [B,,,F,,D,]6 | %156
 ([G,,,D,,B,,]2 [G,,,D,,B,,]4) | [D,,A,,D,]6 | [A,,,E,,A,,]6 | [B,,,F,,D,]6 | [G,,,D,,B,,]6 | %161
 [D,,A,,D,]6 | [A,,,E,,A,,]6 | [D,,A,,D,]6 | [A,,,E,,A,,]6 | [B,,,F,,D,]6 | [A,,,E,,A,,]6 | %167
 [B,,,F,,D,]6 | [G,,,D,,B,,]6 | [D,,A,,D,]6 | [A,,,E,,A,,]6 | [B,,,F,,D,]6 | %172
 [G,,,D,,B,,]4 ([G,,,D,,B,,]!fermata![G,,,D,,B,,]) |!p! D,,A,, D,A,, D,A,, | %174
 A,,,E,, A,,E,, A,,E,, | B,,,F,, D,F,, D,F,, | G,,,D,, B,,D,, B,,2 | D,,A,, D,A,, D,A,, | %178
 A,,,E,, A,,E,, A,,E,, | B,,,F,, D,F,, D,F,, | G,,,D,, B,,D,, B,,2 |!f! D,,A,, D,A,, D,A,, | %182
 A,,,E,, A,,E,, A,,E,, | B,,,F,, D,F,, D,F,, | G,,,D,, B,,4 |!ff! [D,,A,,]6 | [A,,,E,,A,,]6 | %187
!f! !arpeggio![D,,,A,,,D,,]6 |] %188

